public/img/icon/collapse.svg

<svg fill="none" height="20" viewBox="0 0 20 20" width="20" xmlns="http://www.w3.org/2000/svg"><path clip-rule="evenodd" d="m4.50022 5.00124c-.1326 0-.25977.05267-.35354.14643-.09376.09376-.14644.22092-.14644.35351s.05268.25975.14644.35351c.09377.09375.22094.14643.35354.14643h4.99973c.13261 0 .25978-.05268.35354-.14643.09376-.09376.14644-.22092.14644-.35351s-.05268-.25975-.14644-.35351-.22093-.14643-.35354-.14643zm0 2.99962c-.1326 0-.25977.05267-.35354.14643-.09376.09376-.14644.22092-.14644.35351s.05268.25975.14644.35351c.09377.09376.22094.14643.35354.14643h4.99973c.13261 0 .25978-.05267.35354-.14643s.14644-.22092.14644-.35351-.05268-.25975-.14644-.35351-.22093-.14643-.35354-.14643zm-.49998 3.49954c0-.1326.05268-.2597.14644-.3535.09377-.0937.22094-.1464.35354-.1464h4.99973c.13261 0 .25978.0527.35354.1464.09376.0938.14644.2209.14644.3535s-.05268.2598-.14644.3535c-.09376.0938-.22093.1465-.35354.1465h-4.99973c-.1326 0-.25977-.0527-.35354-.1465-.09376-.0937-.14644-.2209-.14644-.3535zm.49998 2.4997c-.1326 0-.25977.0527-.35354.1464-.09376.0938-.14644.221-.14644.3535 0 .1326.05268.2598.14644.3536.09377.0937.22094.1464.35354.1464h4.99973c.13261 0 .25978-.0527.35354-.1464.09376-.0938.14644-.221.14644-.3536 0-.1325-.05268-.2597-.14644-.3535-.09376-.0937-.22093-.1464-.35354-.1464zm6.64568.146 1.9999-1.9998c.0464-.0465.1016-.0835.1623-.1087.0608-.0252.1259-.0381.1916-.0381.0658 0 .1309.0129.1917.0381.0607.0252.1159.0622.1623.1087l1.9999 1.9998c.0939.0939.1466.2212.1466.3539 0 .1328-.0527.2601-.1466.354s-.2212.1466-.354.1466c-.1327 0-.2601-.0527-.3539-.1466l-1.646-1.6468-1.6459 1.6468c-.0939.0939-.2212.1466-.354.1466-.1327 0-.2601-.0527-.3539-.1466-.0939-.0939-.1467-.2212-.1467-.354 0-.1327.0528-.26.1467-.3539zm2.7078-6.29122c-.0464.04656-.1016.0835-.1623.1087-.0608.0252-.1259.03818-.1917.03818-.0657 0-.1308-.01298-.1916-.03818-.0607-.0252-.1159-.06214-.1623-.1087l-1.9999-1.99975c-.0465-.04648-.0834-.10166-.1085-.16239-.0252-.06073-.0382-.12583-.0382-.19156 0-.06574.013-.13083.0382-.19156.0251-.06073.062-.11591.1085-.1624.0938-.09387.2212-.14661.3539-.14661.0658 0 .1309.01295.1916.0381.0608.02516.1159.06203.1624.10851l1.6459 1.6468 1.646-1.6468c.0938-.09387.2212-.14661.3539-.14661.1328 0 .2601.05274.354.14661.0939.09388.1466.2212.1466.35396s-.0527.26008-.1466.35395z" fill="#1e1e1e" fill-rule="evenodd"/></svg>

<svg width="20" height="20" viewBox="0 0 20 20" fill="none" xmlns="http://www.w3.org/2000/svg">
<path fill-rule="evenodd" clip-rule="evenodd" d="M4.50022 5.00124C4.36762 5.00124 4.24045 5.05391 4.14668 5.14767C4.05292 5.24143 4.00024 5.36859 4.00024 5.50118C4.00024 5.63377 4.05292 5.76093 4.14668 5.85469C4.24045 5.94844 4.36762 6.00112 4.50022 6.00112H9.49995C9.63256 6.00112 9.75973 5.94844 9.85349 5.85469C9.94725 5.76093 9.99993 5.63377 9.99993 5.50118C9.99993 5.36859 9.94725 5.24143 9.85349 5.14767C9.75973 5.05391 9.63256 5.00124 9.49995 5.00124H4.50022ZM4.50022 8.00086C4.36762 8.00086 4.24045 8.05353 4.14668 8.14729C4.05292 8.24105 4.00024 8.36821 4.00024 8.5008C4.00024 8.63339 4.05292 8.76055 4.14668 8.85431C4.24045 8.94807 4.36762 9.00074 4.50022 9.00074H9.49995C9.63256 9.00074 9.75973 8.94807 9.85349 8.85431C9.94725 8.76055 9.99993 8.63339 9.99993 8.5008C9.99993 8.36821 9.94725 8.24105 9.85349 8.14729C9.75973 8.05353 9.63256 8.00086 9.49995 8.00086H4.50022ZM4.00024 11.5004C4.00024 11.3678 4.05292 11.2407 4.14668 11.1469C4.24045 11.0532 4.36762 11.0005 4.50022 11.0005H9.49995C9.63256 11.0005 9.75973 11.0532 9.85349 11.1469C9.94725 11.2407 9.99993 11.3678 9.99993 11.5004C9.99993 11.633 9.94725 11.7602 9.85349 11.8539C9.75973 11.9477 9.63256 12.0004 9.49995 12.0004H4.50022C4.36762 12.0004 4.24045 11.9477 4.14668 11.8539C4.05292 11.7602 4.00024 11.633 4.00024 11.5004ZM4.50022 14.0001C4.36762 14.0001 4.24045 14.0528 4.14668 14.1465C4.05292 14.2403 4.00024 14.3675 4.00024 14.5C4.00024 14.6326 4.05292 14.7598 4.14668 14.8536C4.24045 14.9473 4.36762 15 4.50022 15H9.49995C9.63256 15 9.75973 14.9473 9.85349 14.8536C9.94725 14.7598 9.99993 14.6326 9.99993 14.5C9.99993 14.3675 9.94725 14.2403 9.85349 14.1465C9.75973 14.0528 9.63256 14.0001 9.49995 14.0001H4.50022ZM11.1459 14.1461L13.1458 12.1463C13.1922 12.0998 13.2474 12.0628 13.3081 12.0376C13.3689 12.0124 13.434 11.9995 13.4997 11.9995C13.5655 11.9995 13.6306 12.0124 13.6914 12.0376C13.7521 12.0628 13.8073 12.0998 13.8537 12.1463L15.8536 14.1461C15.9475 14.24 16.0002 14.3673 16.0002 14.5C16.0002 14.6328 15.9475 14.7601 15.8536 14.854C15.7597 14.9479 15.6324 15.0006 15.4996 15.0006C15.3669 15.0006 15.2395 14.9479 15.1457 14.854L13.4997 13.2072L11.8538 14.854C11.7599 14.9479 11.6326 15.0006 11.4998 15.0006C11.3671 15.0006 11.2397 14.9479 11.1459 14.854C11.052 14.7601 10.9992 14.6328 10.9992 14.5C10.9992 14.3673 11.052 14.24 11.1459 14.1461ZM13.8537 7.85488C13.8073 7.90144 13.7521 7.93838 13.6914 7.96358C13.6306 7.98878 13.5655 8.00176 13.4997 8.00176C13.434 8.00176 13.3689 7.98878 13.3081 7.96358C13.2474 7.93838 13.1922 7.90144 13.1458 7.85488L11.1459 5.85513C11.0994 5.80865 11.0625 5.75347 11.0374 5.69274C11.0122 5.63201 10.9992 5.56691 10.9992 5.50118C10.9992 5.43544 11.0122 5.37035 11.0374 5.30962C11.0625 5.24889 11.0994 5.19371 11.1459 5.14722C11.2397 5.05335 11.3671 5.00061 11.4998 5.00061C11.5656 5.00061 11.6307 5.01356 11.6914 5.03871C11.7522 5.06387 11.8073 5.10074 11.8538 5.14722L13.4997 6.79402L15.1457 5.14722C15.2395 5.05335 15.3669 5.00061 15.4996 5.00061C15.6324 5.00061 15.7597 5.05335 15.8536 5.14722C15.9475 5.2411 16.0002 5.36842 16.0002 5.50118C16.0002 5.63394 15.9475 5.76126 15.8536 5.85513L13.8537 7.85488Z" fill="#1E1E1E"/>
</svg>
